X:1
T:Dusseldorf, LM
T:Dusseldorf, LM
T:William Henry Havergal, 1849
T:Public Domain Courtesy of the Cyber Hymnal™
C:William Henry Havergal, 1849
Z:Public Domain
Z:Courtesy of the Cyber Hymnal™
%%score ( 1 2 ) ( 3 4 )
L:1/8
Q:1/4=112
M:4/4
K:D
V:1 treble 
V:2 treble 
V:3 bass 
V:4 bass 
V:1
 [DA]2 | D2 [CE]2 [DF]2 [DG]2 | [DA]2 [Fd]2 [Ec]2 [Ae]2 | A2 [^GB]2 [Ac]2 [Fd]2 | [EB]2 B2 [CA]4- | %5
 [CA]2 [DA]2 [DB]2 [CA]2 | [DG]2 [EA]2 [DF]2 [DG]2 | [CE]2 [EA]2 [FA]2 [EG]2 | %8
 [DF]2 [DB]2 [DE]2 [CE]2 | D6 |] %10
V:2
 x2 | D2 x6 | x8 | A2 x6 | x2 ED x4 | x8 | x8 | x8 | x8 | D6 |] %10
V:3
 [D,F,]2 | [F,A,]2 [E,G,]2 [D,A,]2 [B,,B,]2 | [F,A,]2 [D,A,]2 A,2 [A,C]2 | %3
 [CE]2 [B,D]2 [A,C]2 [D,A,]2 | [E,A,]2 [E,^G,]2 [A,,A,]4- | [A,,A,]2 [D,F,]2 [G,,G,]2 [A,,E,]2 | %6
 [B,,G,]2 [C,E,]2 [D,A,]2 [G,,B,]2 | [A,,A,]2 [A,C]2 [D,D]2 [E,B,]2 | [F,A,]2 [G,B,]2 A,2 (A,G,) | %9
 [D,F,]6 |] %10
V:4
 x2 | x8 | x4 A,2 x2 | x8 | x8 | x8 | x8 | x8 | x4 A,2 A,,2 | x6 |] %10

